!!!!SEGMENT: pl-kk--kk-i-397--001_kaspar--missa-kyrie.krn
!!!cenid: 18xx:1446
!!!COM: Kaspar
!!!COM-rismid: pe30048142
!!!CDT:
!!!CNT:
!!!OPR: Missa
!!!OTL: Kyrie
!!!OMV: 001
!!!PDT: 1856
!!!AGN: Sacred; Mass
!!!SMS-siglum: PL-Kk
!!!SMS-shelfmark: Kk.I.397
!!!SMS-shelfwork: 001-001 M
!!!SMS-variant: Sopran PL-Kk KK.I.397:0012 Alt. PL-Kk KK.I.397:0017 Tenor.PL-Kk KK.I.397:0022 Bas. PL-Kk KK.I.397:0027
!!!SMS-altvar: partytura:PL-KK-KK-I-397:0001-0003
!!!NIFC-rismid: 1001139936
!!!URL-scan: http://repozytorium.nifc.pl/skany/pl-kk-nut--i-397
!!!ONB-nifc: UWAGA: na podstawie głosów. Proszę uzupełnić pola !!!SMS dot. partytury i głosów. Uwaga: części Mszy: 1. Kyrie, 2. Gloria, 3. Credo, 4. Sanctus, 5. Benedictus, 6. Agnus
!!!key:
**kern	**text	**dynam	**kern	**text	**dynam	**kern	**text	**dynam	**kern	**text	**dynam
*part4	*part4	*part4	*part3	*part3	*part3	*part2	*part2	*part2	*part1	*part1	*part1
*staff4	*staff4	*	*staff3	*staff3	*	*staff2	*staff2	*	*staff1	*staff1	*
*Iempty	*	*	*Itenor	*	*	*Ialto	*	*	*Isoprn	*	*
*I"Bas.	*	*	*I"Tenor.	*	*	*I"Alt.	*	*	*I"Sopran	*	*
*I'B	*	*	*I'T	*	*	*I'A	*	*	*I'S	*	*
*clefF4	*	*	*clefC4	*	*	*clefC3	*	*	*clefC1	*	*
*k[]	*	*	*k[]	*	*	*k[]	*	*	*k[]	*	*
*a:	*	*	*a:	*	*	*a:	*	*	*a:	*	*
*M4/4	*	*	*M4/4	*	*	*M4/4	*	*	*M4/4	*	*
*met(c)	*	*	*met(c)	*	*	*met(c)	*	*	*met(c)	*	*
=1	=1	=1	=1	=1	=1	=1	=1	=1	=1	=1	=1
!	!	!	!	!	!	!	!	!	!LO:TX:t=P:problem:all\right:global	!	!
!LO:TX:a:t=Larghetto con motto.	!	!LO:DY:rj:a	!LO:TX:a:t=Larghetto con motto.	!	!LO:DY:rj:a	!LO:TX:a:t=Larghetto con motto	!	!LO:DY:rj:a	!LO:TX:a:t=Larghetto con motto	!	!LO:DY:rj:a
(1A\	Ky-	p	(1A\	Ky-	p	(1a\	Ky-	p	(1a\	Ky-	p
=2	=2	=2	=2	=2	=2	=2	=2	=2	=2	=2	=2
1F\	.	.	1F/	.	.	1f\	.	.	1f/	.	.
=3	=3	=3	=3	=3	=3	=3	=3	=3	=3	=3	=3
*2\right	*	*	*	*	*	*2\right	*	*	*2\right	*	*
2G\)	.	.	2G/)	.	.	2g\)	.	.	2g\)	.	.
2F\	-ri-	.	2F/	-ri-	.	2f\	-ri-	.	2f/	-ri-	.
=4	=4	=4	=4	=4	=4	=4	=4	=4	=4	=4	=4
1E\	-e	.	1E/	-e	.	1e\	-e	.	1e/	-e	.
=5	=5	=5	=5	=5	=5	=5	=5	=5	=5	=5	=5
!	!	!LO:DY:rj	!	!	!LO:DY:rj:a	!	!	!LO:DY:rj:a	!	!	!LO:DY:rj:a
(1E\	Ky-	f	(1B\	Ky-	f	1g#X\	Ky-	f	(1ee\	Ky-	f
=6	=6	=6	=6	=6	=6	=6	=6	=6	=6	=6	=6
1F\	.	.	1A\	.	.	[1a\	.	.	1cc\	.	.
=7	=7	=7	=7	=7	=7	=7	=7	=7	=7	=7	=7
*	*	*	*2\right	*	*	*	*	*	*	*	*
2D\)	.	.	2f\)	.	.	2a\]	.	.	2dd\)	.	.
2A\	-ri-	.	2e\	-ri-	.	2a\	-ri-	.	2cc\	-ri-	.
=8	=8	=8	=8	=8	=8	=8	=8	=8	=8	=8	=8
!	!	!	!	!	!	!	!	!	!	!	!LO:DY:rj:a
1AA/	-e	.	1c\	-e	.	2e\	-e	.	1a\	-e	>]
.	.	.	.	.	.	2e\	e-	.	.	.	.
=9	=9	=9	=9	=9	=9	=9	=9	=9	=9	=9	=9
!LO:TX:a:t=3.	!	!	!	!	!	!	!	!	!	!	!
0r	.	.	4r	.	.	[1e\	-le-	.	4r	.	p
.	.	.	(4c\	e-	.	.	.	.	(4a\	e-	.
.	.	.	4B\	.	.	.	.	.	4b\	.	.
.	.	.	4A\)	.	.	.	.	.	4cc\)	.	.
!	!	!	!	!	!	!	!	!	!LO:LB:g=original	!	!
=10	=10	=10	=10	=10	=10	=10	=10	=10	=10	=10	=10
.	.	.	(2B\	-le-	.	1e\_	.	.	2dd\	-le-	.
.	.	.	4G#X/)	.	.	.	.	.	(4b\	.	.
.	.	.	4F#X/	-i-	.	.	.	.	4a\)	-i-	.
!	!	!	!LO:LB:g=original	!	!	!LO:LB:g=original	!	!	!	!	!
=11	=11	=11	=11	=11	=11	=11	=11	=11	=11	=11	=11
1r	.	.	4G#X/	-son	.	1e\]	.	.	4b\	-son	.
.	.	.	(4G#/	e-	.	.	.	.	(4b\	e-	.
.	.	.	4A\	.	.	.	.	.	4cc\	.	.
.	.	.	4B\)	.	.	.	.	.	4dd\)	.	.
=12	=12	=12	=12	=12	=12	=12	=12	=12	=12	=12	=12
2r	.	.	(4c\	-le-	.	1e\	-i-	.	(4ee\	-le-	.
.	.	f	4B\	.	.	.	.	.	4dd\	.	.
2E\	e-	.	4A\)	.	.	.	.	.	4cc\	.	.
.	.	.	4G#X/	-i-	.	.	.	.	4b\)	-i-	.
!LO:LB:g=original	!	!	!	!	!	!	!	!	!	!	!
=13	=13	=13	=13	=13	=13	=13	=13	=13	=13	=13	=13
(4A\	-le-	.	4A\	-son	.	4e\	-son	.	4cc\	-son	.
.	.	.	.	.	.	.	.	.	.	.	f
4G\	.	.	(4A\	e-	.	(2a\	e-	.	4cc\	e-	.
4F\)	.	.	4B\	.	.	.	.	.	4dd\	.	.
4E\	-i-	.	4c\)	.	.	4g\)	.	.	4ee\	.	.
=14	=14	=14	=14	=14	=14	=14	=14	=14	=14	=14	=14
2D\	-son	.	(2d\	-le-	.	(4f\	-lei-	.	(2ff\	-le-	.
.	.	.	.	.	.	4g\	.	.	.	.	.
2F\	e-	.	4B\)	.	.	2a\)	.	.	4dd\)	.	.
.	.	.	4A\	-i-	.	.	.	.	4cc\	-i-	.
=15	=15	=15	=15	=15	=15	=15	=15	=15	=15	=15	=15
(4G\	-le-	.	4G/	-son	.	4d\	-son	.	4b\	-son	.
4F\	.	.	(4G/	e-	.	(2g\	e-	.	(4b\	e-	.
4E\)	.	.	4A\	.	.	.	.	.	4cc\	.	.
4D\	-i-	.	4B\)	.	.	4f\)	.	.	4dd\)	.	.
=16	=16	=16	=16	=16	=16	=16	=16	=16	=16	=16	=16
2C/	-son	.	(2c\	-le-	.	(4e\	-lei-	.	(2ee\	le-	.
.	.	.	.	.	.	4f\	.	.	.	.	.
(2E\	Ky-	.	4A\)	.	.	2g\)	.	.	4cc\)	.	.
.	.	.	4G\	-i-	.	.	.	.	4b\	-i-	.
!	!	!	!	!	!	!	!	!	!LO:LB:g=original	!	!
=17	=17	=17	=17	=17	=17	=17	=17	=17	=17	=17	=17
2F\)	.	.	2A\	-son	.	2c\	-son	.	1a\	-son	.
2F\	ri-	.	[2A\	Ky-	.	[2d\	e-	.	.	.	.
!	!	!	!LO:LB:g=original	!	!	!	!	!	!	!	!
=18	=18	=18	=18	=18	=18	=18	=18	=18	=18	=18	=18
1E\	-e	.	2A\]	.	.	4d\]	.	.	2.b\	Ky-	.
.	.	.	.	.	.	4B\	.	.	.	.	.
.	.	.	2G#X/	-ri-	.	[2e\	-le-	.	.	.	.
.	.	.	.	.	.	.	.	.	4b\	-ri-	.
!	!	!	!	!	!	!LO:LB:g=original	!	!	!	!	!
=19	=19	=19	=19	=19	=19	=19	=19	=19	=19	=19	=19
!	!	!LO:DY:rj:a	!	!	!	!	!	!	!	!	!
2.A\	Ky-	f	1c\	-e	.	2e\]	e-	.	1cc\	-e	.
.	.	.	.	.	.	[2f#X\	.	.	.	.	.
4A\	-ri-	.	.	.	.	.	.	.	.	.	.
=20	=20	=20	=20	=20	=20	=20	=20	=20	=20	=20	=20
[1G\	-e	.	2c\	Ky-	.	4f#\]	.	.	2.dd\	Ky-	.
.	.	.	.	.	.	4d\	.	.	.	.	.
.	.	.	4.B\	-ri-	.	2g\	-i-	.	.	.	.
.	.	.	.	.	.	.	.	.	4dd\	-ri-	.
.	.	.	8B\	-e	.	.	.	.	.	.	.
=21	=21	=21	=21	=21	=21	=21	=21	=21	=21	=21	=21
!	!	!	!	!	!	!	!	!	!	!	!LO:DY:rj:a
4G\]	.	.	2c\	e-	.	1g\	-son	.	2ee\	-e	f
(4C\	e-	.	.	.	.	.	.	.	.	.	.
4E\	.	.	[2c\	-e-	.	.	.	.	[2ee\	e-	.
4G\	.	.	.	.	.	.	.	.	.	.	.
!LO:LB:g=original	!	!	!	!	!	!	!	!	!	!	!
=22	=22	=22	=22	=22	=22	=22	=22	=22	=22	=22	=22
2A\)	-lei-	.	2c\]	.	.	4r	.	.	4ee\]	.	.
.	.	.	.	.	.	(4e\	e-	.	(4cc\	-le-	.
2G\	.	.	4B\	le-	.	4g\	.	.	4dd\)	.	.
.	.	.	4c\	-i-	.	4cc\)	.	.	4ee\	-i-	.
=23	=23	=23	=23	=23	=23	=23	=23	=23	=23	=23	=23
4G\	son	.	2c\	-son	.	2cc\	-lei-	.	2ee\	-son	.
(4C\	e-	.	.	.	.	.	.	.	.	.	.
4E\	.	.	[2c\	e-	.	2g\	-son	.	[2ee\	e-	.
4G\)	.	.	.	.	.	.	.	.	.	.	.
=24	=24	=24	=24	=24	=24	=24	=24	=24	=24	=24	=24
2A\	-lei-	.	2c\]	.	.	4r	.	.	4ee\]	.	.
.	.	.	.	.	.	(4e\	e-	.	(4cc\	-le-	.
2G\	.	.	4B\	-le-	.	4g\	.	.	4dd\)	.	.
.	.	.	4c\	-i-	.	4cc\)	.	.	4ee\	-i-	.
!	!	!	!	!	!	!	!	!	!LO:LB:g=original	!	!
=25	=25	=25	=25	=25	=25	=25	=25	=25	=25	=25	=25
4G\	-son	.	2c\	-son	f	[1cc\	-lei-	.	2ee\	-son	.
(4C\	e-	.	.	.	.	.	.	.	.	.	.
4E\	.	.	2g\	e-	.	.	.	.	2ee\	e-	.
4G\)	.	.	.	.	.	.	.	.	.	.	.
!	!	!	!LO:LB:g=original	!	!	!	!	!	!	!	!
=26	=26	=26	=26	=26	=26	=26	=26	=26	=26	=26	=26
1B-X\	-lei-	.	1g\	-lei-	.	1cc\]	.	.	1ee\	-lei-	.
!	!	!	!	!	!	!LO:LB:g=original	!	!	!	!	!
=27	=27	=27	=27	=27	=27	=27	=27	=27	=27	=27	=27
2Bn\	-son	.	2g\	-son	.	2bn\	-son	.	2ee\	-son	.
(2G\	e-	.	2Bn\	e-	.	2e\	e-	.	(2ee\	e-	.
=28	=28	=28	=28	=28	=28	=28	=28	=28	=28	=28	=28
2F#X\	.	.	[1B\	-lei-	.	(2a\	.	.	2dd#X\	.	.
!	!	!	!	!	!	!LO:TX:t=P:problem:wykreślony takt	!	!	!	!	!
2E\)	.	.	.	.	.	2g\)	.	.	2ee\)	.	.
=29	=29	=29	=29	=29	=29	=29	=29	=29	=29	=29	=29
1B\	-lei-	.	1B\_	.	.	(1g\	-lei-	.	[1ee\	-le-	.
=30	=30	=30	=30	=30	=30	=30	=30	=30	=30	=30	=30
1BB/	.	.	1B\]	.	.	1f#X\)	.	.	2ee\]	.	.
.	.	.	.	.	.	.	.	.	2dd#X\	-i-	.
!LO:LB:g=original	!	!	!	!	!	!	!	!	!	!	!
=31	=31	=31	=31	=31	=31	=31	=31	=31	=31	=31	=31
2E\	-son	.	2B\	-son	.	2g\	-son	.	2ee\	-son	.
2r	.	.	2r	.	.	2r	.	.	2r	.	.
=32	=32	=32	=32	=32	=32	=32	=32	=32	=32	=32	=32
!	!	!LO:DY:rj:a	!	!	!LO:DY:rj:a	!	!	!LO:DY:rj:a	!	!	!LO:DY:rj:a
1C/	Chri-	p	1G/	Chri-	p	1e\	Chri-	p	1g\	Chri-	p
=33	=33	=33	=33	=33	=33	=33	=33	=33	=33	=33	=33
1E\	-ste	.	2G/	-ste	.	1c\	-ste	.	1e/	-ste	.
.	.	.	2G/	e-	.	.	.	.	.	.	.
!	!	!	!	!	!	!	!	!	!LO:LB:g=original	!	!
=34	=34	=34	=34	=34	=34	=34	=34	=34	=34	=34	=34
2BB/	e-	.	1G/	-lei-	.	2d\	e-	.	2fn/	e-	.
2C/	-lei-	.	.	.	.	[2c\	-le-	.	2e/	-lei-	.
=35	=35	=35	=35	=35	=35	=35	=35	=35	=35	=35	=35
1GG/	-son	.	1G/	-son	.	4c\]	.	.	1d/	-son	.
.	.	.	.	.	.	4B/	-i-	.	.	.	.
.	.	.	.	.	.	2B/	-son	.	.	.	.
!	!	!	!	!	!	!LO:LB:g=original	!	!	!	!	!
=36	=36	=36	=36	=36	=36	=36	=36	=36	=36	=36	=36
1D\	Chri-	.	1A\	chri-	.	1fn\	Chri-	.	1a\	Chri-	.
!	!	!	!LO:LB:g=original	!	!	!	!	!	!	!	!
=37	=37	=37	=37	=37	=37	=37	=37	=37	=37	=37	=37
1F\	-ste	.	2A\	-ste	.	1d\	-ste	.	1f/	-ste	.
.	.	.	2A\	e-	.	.	.	.	.	.	.
=38	=38	=38	=38	=38	=38	=38	=38	=38	=38	=38	=38
2C#X/	e-	.	1A\	-lei-	.	2e\	e-	.	2g\	e-	.
2D\	-lei-	.	.	.	.	[2d\	-le-	.	2f/	-lei-	.
=39	=39	=39	=39	=39	=39	=39	=39	=39	=39	=39	=39
1AA/	-son	.	1A\	-son	.	4d\]	.	.	1e/	-son	.
.	.	.	.	.	.	4c#X\	-i-	.	.	.	.
!	!	!	!	!	!	!LO:SIC:v:s=2c#	!	!	!	!	!
!	!	!	!	!	!	!LO:TX:t=P:problem:korekta ołówkiem: 2c#, dopisek: cis	!	!	!	!	!
.	.	.	.	.	.	2d\	-son	.	.	.	.
=40	=40	=40	=40	=40	=40	=40	=40	=40	=40	=40	=40
!	!	!LO:DY:rj:a	!	!	!LO:DY:rj:a	!LO:SIC:v:l:s=Chri	!	!	!LO:TX:a:t=7	!	!
4r	.	f	4r	.	f	1a\	Crri-	.	00r	.	.
(4A\	e-	.	(4cn\	e-	.	.	.	.	.	.	.
4B\	.	.	4d\	.	.	.	.	.	.	.	.
4cn\)	.	.	4e\)	.	.	.	.	.	.	.	.
!LO:LB:g=original	!	!	!	!	!	!	!	!	!	!	!
=41	=41	=41	=41	=41	=41	=41	=41	=41	=41	=41	=41
(2d\	-le-	.	(2fn\	-le-	.	1f\	-ste	.	.	.	.
4B\)	.	.	4d\)	.	.	.	.	.	.	.	.
4A\	-i-	.	4c\	-i-	.	.	.	.	.	.	.
=42	=42	=42	=42	=42	=42	=42	=42	=42	=42	=42	=42
4G\	-son	.	4B\	-son	.	(2g\	Chri-	.	.	.	.
(4G\	e-	.	(4B\	e-	.	.	.	.	.	.	.
4A\	.	.	4c\	.	.	2f\)	.	.	.	.	.
4B\)	.	.	4d\)	.	.	.	.	.	.	.	.
=43	=43	=43	=43	=43	=43	=43	=43	=43	=43	=43	=43
4c\	-le-	.	(4e\	-le-	.	[1e\	-ste	.	.	.	.
(4B\	.	.	4d\	.	.	.	.	.	.	.	.
4A\	.	.	4c\)	.	.	.	.	.	.	.	.
4G#X\	.	.	4B\	-i-	.	.	.	.	.	.	.
=44	=44	=44	=44	=44	=44	=44	=44	=44	=44	=44	=44
[1A\)	.	.	1c\	-son	.	4e\]	.	.	0r	.	.
.	.	.	.	.	.	4e\	e-	.	.	.	.
.	.	.	.	.	.	4f#X\	.	.	.	.	.
.	.	.	.	.	.	4e\	.	.	.	.	.
!	!	!	!LO:LB:g=original	!	!	!	!	!	!	!	!
=45	=45	=45	=45	=45	=45	=45	=45	=45	=45	=45	=45
2A\]	.	.	1B\	e-	.	2d#X\	-le-	.	.	.	.
4Gn\	.	.	.	.	.	[2e\	.	.	.	.	.
4E\	.	.	.	.	.	.	.	.	.	.	.
!	!	!	!	!	!	!LO:LB:g=original	!	!	!	!	!
=46	=46	=46	=46	=46	=46	=46	=46	=46	=46	=46	=46
1F#X\	i-	.	1A\	-le-	.	4e\]	-e-	.	1r	.	.
.	.	.	.	.	.	(4f#X\	.	.	.	.	.
.	.	.	.	.	.	4d#X\	.	.	.	.	.
.	.	.	.	.	.	4c#X\	.	.	.	.	.
=47	=47	=47	=47	=47	=47	=47	=47	=47	=47	=47	=47
!	!	!	!	!	!	!	!	!	!	!	!LO:DY:rj:a
2BB/	-son	.	(4F#X/	.	.	2d#X\	.	.	4r	.	f
.	.	.	4B\	.	.	.	.	.	(4f#X\	e-	.
2r	.	.	4c#X\)	.	.	4e\)	.	.	4b\	.	.
.	.	.	4d#X\	-i-	.	4f#X\	-i-	.	4a\)	.	.
=48	=48	=48	=48	=48	=48	=48	=48	=48	=48	=48	=48
1E\	chri-	.	4e\	-son	.	2e\	-son	.	(2gn\	-le-	.
.	.	.	(4dn\	e-	.	.	.	.	.	.	.
.	.	.	4cn\	.	.	(4f#X\	e-	.	4a\	.	.
.	.	.	4B\)	.	.	4g\)	.	.	4b\)	.	.
!LO:LB:g=original	!	!	!	!	!	!	!	!	!LO:LB:g=original	!	!
=49	=49	=49	=49	=49	=49	=49	=49	=49	=49	=49	=49
1C/	-ste	.	(4A\	-le-	.	2a\	-le-	.	2cc\	-e-	.
.	.	.	4B\	.	.	.	.	.	.	.	.
.	.	.	[2c\)	.	.	(4f#X\	.	.	(4a\	.	.
.	.	.	.	.	.	4e\	.	.	4g\	.	.
=50	=50	=50	=50	=50	=50	=50	=50	=50	=50	=50	=50
(2D\	e-	.	4c\]	.	.	2dn\	.	.	2f#X/	.	.
.	.	.	4A\	.	.	.	.	.	.	.	.
2C\)	.	.	(2d\	.	.	4e\	.	.	4g\	.	.
.	.	.	.	.	.	4f#X\	.	.	4a\	.	.
=51	=51	=51	=51	=51	=51	=51	=51	=51	=51	=51	=51
1BB/	-lei-	.	4G/	.	.	4g\	.	.	4b\	.	.
.	.	.	4A\	.	.	4f#X\	.	.	4a\	.	.
.	.	.	[2B\	.	.	4e\	.	.	4g\)	.	.
.	.	.	.	.	.	4d#X\)	-i-	.	4f#X/	-i-	.
=52	=52	=52	=52	=52	=52	=52	=52	=52	=52	=52	=52
2E\	-son	.	4B\]	.	.	[1e\	-son	.	2g\	-son	.
.	.	.	4d\	.	.	.	.	.	.	.	.
2r	.	.	4c\	.	.	.	.	.	2g#X\	e-	.
.	.	.	4B\)	-i-	.	.	.	.	.	.	.
!	!	!	!LO:LB:g=original	!	!	!LO:LB:g=original	!	!	!	!	!
=53	=53	=53	=53	=53	=53	=53	=53	=53	=53	=53	=53
!LO:TX:a:t=2	!	!	!	!	!	!	!	!	!	!	!
0r	.	.	4c\	-son	.	4e\]	.	.	[1a\	-le-	.
.	.	.	(4c\	e-	.	(4e\	e-	.	.	.	.
.	.	.	4d\	.	.	4fn^\	.	.	.	.	.
.	.	.	4c\)	.	.	4e\)	.	.	.	.	.
=54	=54	=54	=54	=54	=54	=54	=54	=54	=54	=54	=54
.	.	.	[1B\	le-	.	[1d\	-le-	.	(4a\]	.	.
.	.	.	.	.	.	.	.	.	4b\	.	.
.	.	.	.	.	.	.	.	.	4g#X\)	.	.
.	.	.	.	.	.	.	.	.	4f#X/	-i-	.
=55	=55	=55	=55	=55	=55	=55	=55	=55	=55	=55	=55
2r	.	.	4B\]	.	.	(4d\]	.	.	2g#X\	-son	.
.	.	.	(4d\	.	.	4fn\	.	.	.	.	.
2E\	e-	.	4c\)	.	.	4e\	.	.	2r	.	.
.	.	.	4B\	i-	.	4d\)	-i-	.	.	.	.
!	!	!	!	!	!	!	!	!	!LO:LB:g=original	!	!
=56	=56	=56	=56	=56	=56	=56	=56	=56	=56	=56	=56
[>1AA/	-le-	.	2A\	-son	.	4c#X\	-son	.	(1a\	Ky-	.
.	.	.	.	.	.	(4A/	e-	.	.	.	.
.	.	.	2r	.	.	4B/	.	.	.	.	.
.	.	.	.	.	.	4c#\)	.	.	.	.	.
=57	=57	=57	=57	=57	=57	=57	=57	=57	=57	=57	=57
!	!	!	!LO:TX:a:t=3.	!	!	!	!	!	!	!	!
(4AA/]	.	.	0r	.	.	(1d\	-le-	.	1fn/	.	.
4A\	.	.	.	.	.	.	.	.	.	.	.
4Fn\	.	.	.	.	.	.	.	.	.	.	.
4D\	.	.	.	.	.	.	.	.	.	.	.
=58	=58	=58	=58	=58	=58	=58	=58	=58	=58	=58	=58
2E\	.	.	.	.	.	4B/	.	.	2g\)	.	.
.	.	.	.	.	.	4c#X\	.	.	.	.	.
4D\	.	.	.	.	.	2d\	.	.	2f/	-ri-	.
4F\)	.	.	.	.	.	.	.	.	.	.	.
=59	=59	=59	=59	=59	=59	=59	=59	=59	=59	=59	=59
2A\	-i-	.	1r	.	.	2c#X\)	.	.	[>1e/	-e	.
2AA/	-son	.	.	.	.	2cn\	i-	.	.	.	.
!LO:LB:g=original	!	!	!	!	!	!	!	!	!	!	!
=60	=60	=60	=60	=60	=60	=60	=60	=60	=60	=60	=60
1E\	Ky-	.	4r	.	.	4B/	-son	.	4e/]	.	.
.	.	.	4G#X/	e-	.	4r	.	.	(>4e/	e-	.
.	.	.	4A\	.	.	2r	.	.	4f#X/	.	.
.	.	.	4B\	.	.	.	.	.	4g#X/)	.	.
!	!	!	!	!	!	!LO:LB:g=original	!	!	!	!	!
=61	=61	=61	=61	=61	=61	=61	=61	=61	=61	=61	=61
!	!	!	!	!	!	!LO:TX:a:t=3.	!	!	!	!	!
(1C/	.	.	4c\	-le-	.	0r	.	.	(4a\	-le-	.
.	.	.	4B\	.	.	.	.	.	4e/	.	.
.	.	.	[2A\	.	.	.	.	.	2a\)	.	.
!	!	!	!LO:LB:g=original	!	!	!	!	!	!	!	!
=62	=62	=62	=62	=62	=62	=62	=62	=62	=62	=62	=62
2D\)	.	.	4A\]	e-	.	.	.	.	(4f#X\	.	.
.	.	.	(4B\	.	.	.	.	.	4g#X\	.	.
2C/	-ri-	.	4c\	.	.	.	.	.	4a\	.	.
.	.	.	4A\	.	.	.	.	.	4cc\	.	.
=63	=63	=63	=63	=63	=63	=63	=63	=63	=63	=63	=63
1AA/	-e	.	4c\	.	.	1r	.	.	4ee\	.	.
.	.	.	4d\	.	.	.	.	.	4ffn\)	.	.
.	.	.	4e\)	.	.	.	.	.	4ee\	.	.
.	.	.	4f\	-i-	.	.	.	.	4dd\	-i-	.
!	!	!	!	!	!	!	!	!	!LO:LB:g=original	!	!
=64	=64	=64	=64	=64	=64	=64	=64	=64	=64	=64	=64
!	!	!	!	!	!	!	!	!LO:DY:rj:a	!	!	!
1AA/	e-	.	4e\	-son	.	4r	.	f	4cc\	-son	.
!	!	!	!	!	!	!	!	!	!	!	!LO:DY:a
.	.	.	.	.	.	.	.	.	.	.	f
.	.	.	(4e\	e-	.	(4a\	e-	.	(4cc\	e-	.
.	.	.	4f\	.	.	4g#X^\	.	.	4dd^\	.	.
.	.	.	4e\)	.	.	4a\)	.	.	4cc\)	.	.
=65	=65	=65	=65	=65	=65	=65	=65	=65	=65	=65	=65
(4E\	-le-	.	1e\	-lei-	.	1a\	-lei-	.	1cc\	-lei-	.
4D\	.	.	.	.	.	.	.	.	.	.	.
4C\)	.	.	.	.	.	.	.	.	.	.	.
4BB/	-i-	.	.	.	.	.	.	.	.	.	.
=66	=66	=66	=66	=66	=66	=66	=66	=66	=66	=66	=66
1AA/	-son	.	4e\	-son	.	4a\	-son	.	4cc\	-son	.
.	.	.	(4e\	e-	.	(4a\	e-	.	(4cc\	e-	.
.	.	.	4f\	.	.	4g#X^\	.	.	4dd^\	.	.
.	.	.	4e\)	.	.	4a\)	.	.	4cc\)	.	.
=67	=67	=67	=67	=67	=67	=67	=67	=67	=67	=67	=67
(4E\	e-	.	1e\	-lei-	.	(2a\	-lei-	.	2cc\	-le-	.
4AA/	.	.	.	.	.	.	.	.	.	.	.
4A\	.	.	.	.	.	2gn\)	.	.	2cc#X\	-i-	.
4B-X\)	.	.	.	.	.	.	.	.	.	.	.
=68	=68	=68	=68	=68	=68	=68	=68	=68	=68	=68	=68
!LO:TX:t=P:problem:brak rozpoczęcia ligatury	!	!	!	!	!	!	!	!	!	!	!
1A\	-le-	.	4d\	-son	.	4f\	-son	.	4dd\	-son	.
.	.	.	(4d\	e-	.	(4f\	e-	.	(4dd\	e-	.
.	.	.	4e\	.	.	4g^\	.	.	4cc#X^\	.	.
.	.	.	4d\)	.	.	4f\)	.	.	4dd\)	.	.
!LO:LB:g=original	!	!	!	!	!	!	!	!	!	!	!
=69	=69	=69	=69	=69	=69	=69	=69	=69	=69	=69	=69
4A\]	e-	.	1d\	-lei-	.	1f\	-lei-	.	1dd\	-lei-	.
4G\	.	.	.	.	.	.	.	.	.	.	.
(4F\	.	.	.	.	.	.	.	.	.	.	.
4D\	.	.	.	.	.	.	.	.	.	.	.
!	!	!	!LO:LB:g=original	!	!	!	!	!	!	!	!
=70	=70	=70	=70	=70	=70	=70	=70	=70	=70	=70	=70
1A\	.	.	4d\	-son	.	4f\	-son	.	4dd\	-son	.
.	.	.	(4d\	e-	.	(4f\	e-	.	(4dd\	e-	.
.	.	.	4e\	.	.	4g^\	.	.	4cc#X^\	.	.
.	.	.	4d\)	.	.	4f\)	.	.	4dd\)	.	.
!	!	!	!	!	!	!LO:LB:g=original	!	!	!LO:LB:g=original	!	!
=71	=71	=71	=71	=71	=71	=71	=71	=71	=71	=71	=71
4A\	.	.	1d\	-lei-	.	2f\	-le-	.	1dd\	-lei-	.
4D\)	.	.	.	.	.	.	.	.	.	.	.
4F\	-i-	.	.	.	.	4a\	-i-	.	.	.	.
4G\	-son	.	.	.	.	4bn\	-son	.	.	.	.
=72	=72	=72	=72	=72	=72	=72	=72	=72	=72	=72	=72
1A\	Ky-	.	4A\	-son	.	(1cc\	Ky-	.	4ccn\	-son	.
.	.	.	(4A\	e-	.	.	.	.	(4cc\	e-	.
.	.	.	4Bn\	.	.	.	.	.	4dd\	.	.
.	.	.	4cn\)	.	.	.	.	.	4ee\)	.	.
=73	=73	=73	=73	=73	=73	=73	=73	=73	=73	=73	=73
(1F\	.	.	(2d\	-le-	.	1a\	.	.	(2ff\	-le-	.
.	.	.	4B\)	.	.	.	.	.	4dd\)	.	.
.	.	.	4A\	-i-	.	.	.	.	4cc\	-i-	.
=74	=74	=74	=74	=74	=74	=74	=74	=74	=74	=74	=74
2G\)	.	.	4G/	-son	.	2b\)	.	.	4b\	-son	.
.	.	.	(4G/	e-	.	.	.	.	(4b\	e-	.
2F\	-ri-	.	4A\	.	.	2a\	-ri-	.	4cc\	.	.
.	.	.	4B\)	.	.	.	.	.	4dd\)	.	.
=75	=75	=75	=75	=75	=75	=75	=75	=75	=75	=75	=75
1E\	-e	.	(4c\	-le-	.	1g\	-e	.	(4ee\	-le-	.
.	.	.	4B\	.	.	.	.	.	4dd\	.	.
.	.	.	4A\)	.	.	.	.	.	4cc\)	.	.
.	.	.	4G/	-i-	.	.	.	.	4b\	-i-	.
=76	=76	=76	=76	=76	=76	=76	=76	=76	=76	=76	=76
1F\	e-	.	2F/	-son	.	[1a\	e-	.	2a\	-son	.
.	.	.	2G/	e-	.	.	.	.	2b\	e-	.
!	!	!	!LO:LB:g=original	!	!	!	!	!	!	!	!
=77	=77	=77	=77	=77	=77	=77	=77	=77	=77	=77	=77
1F\	-lei-	.	2A\	-lei-	.	1a\_	.	.	2cc\	-le-	.
.	.	.	2B\	.	.	.	.	.	2dd\	-i-	.
!LO:LB:g=original	!	!	!	!	!	!	!	!	!LO:LB:g=original	!	!
=78	=78	=78	=78	=78	=78	=78	=78	=78	=78	=78	=78
4E\	-son	.	4c\	-son	.	1a\]	.	.	4ee\	-son	.
(4C\	e-	.	(4e\	e-	.	.	.	.	(4a\	e-	.
4D\	.	.	4d\	.	.	.	.	.	4b\	.	.
4E\)	.	.	4c\)	.	.	.	.	.	4cc\)	.	.
=79	=79	=79	=79	=79	=79	=79	=79	=79	=79	=79	=79
(2F\	-le-	.	(2d\	-le-	.	[1a\	-le-	.	(2b\	-le-	.
4D\)	.	.	4f\)	.	.	.	.	.	4dd\)	.	.
4E\	-i-	.	4e\	-i-	.	.	.	.	4cc\	-i-	.
=80	=80	=80	=80	=80	=80	=80	=80	=80	=80	=80	=80
4E\	-son	.	4e\	-son	.	1a\_	.	.	4cc\	-son	.
4C\	e-	.	(4e\	e-	.	.	.	.	(4a\	e-	.
4D\	.	.	4d\	.	.	.	.	.	4b\	.	.
4E\	.	.	4c\)	.	.	.	.	.	4cc\)	.	.
=81	=81	=81	=81	=81	=81	=81	=81	=81	=81	=81	=81
2F\	-le-	.	(2d\	-le-	.	1a\_	i-	.	(2b\	-le-	.
4D\	.	.	4f\)	.	.	.	.	.	4dd\)	.	.
4E\	-i-	.	4e\	-i-	.	.	.	.	4cc\	-i-	.
=82	=82	=82	=82	=82	=82	=82	=82	=82	=82	=82	=82
1E\	-son	.	1e\	-son	.	1a\_	-son	.	1cc\	-son	.
!	!	!	!	!	!	!LO:LB:g=original	!	!	!	!	!
=83	=83	=83	=83	=83	=83	=83	=83	=83	=83	=83	=83
!	!	!LO:DY:rj:a	!	!	!LO:DY:rj:a	!LO:TX:t=P:problem:brak dokończenia ligatury	!	!	!	!	!LO:DY:rj:a
2.G\	Ky-	f	2.e\	Ky-	f	2.a\	Ky-	.	2.cc#X\	Ky-	f
4G\	-ri-	.	4e\	-ri-	.	4a\	-ri-	.	4cc#\	-ri-	.
=84	=84	=84	=84	=84	=84	=84	=84	=84	=84	=84	=84
1F\	-e	.	1d\	-e	.	1a\	-e	.	1dd\	-e	.
!	!	!	!LO:LB:g=original	!	!	!	!	!	!	!	!
=85	=85	=85	=85	=85	=85	=85	=85	=85	=85	=85	=85
2.E-X\	Ky-	.	2.c\	Ky-	.	2.a\	Ky-	.	2.ff\	Ky-	.
4E-\	-ri-	.	4c\	-ri-	.	4a\	-ri-	.	4ff\	-ri-	.
!LO:LB:g=original	!	!	!	!	!	!	!	!	!LO:LB:g=original	!	!
=86	=86	=86	=86	=86	=86	=86	=86	=86	=86	=86	=86
1D\	-e	.	1d\	-e	.	1b-X\	-e	.	1ff\	-e	.
=87	=87	=87	=87	=87	=87	=87	=87	=87	=87	=87	=87
1D#X\	e-	.	1c\	e-	.	1a\	e-	.	1ff\	e-	.
=88	=88	=88	=88	=88	=88	=88	=88	=88	=88	=88	=88
[1E\	-lei-	.	1c\	-le-	.	[1a\	-le-	.	1ee\	-le-	.
=89	=89	=89	=89	=89	=89	=89	=89	=89	=89	=89	=89
!	!	!	!	!	!	!	!	!	!	!	!LO:DY:rj:a
1E\_	.	.	(4A\	.	.	1a\_	.	.	1cc\	.	p
.	.	.	4B\	.	.	.	.	.	.	.	.
.	.	.	4c\	.	.	.	.	.	.	.	.
.	.	.	4d\	.	.	.	.	.	.	.	.
=90	=90	=90	=90	=90	=90	=90	=90	=90	=90	=90	=90
2E\]	.	.	2e\	.	.	1a\_	.	.	[1b\	.	.
(2F\	.	.	2d#X\	.	.	.	.	.	.	.	.
=91	=91	=91	=91	=91	=91	=91	=91	=91	=91	=91	=91
1E\)	.	.	4e\	.	.	2a\]	.	.	1b\]	-i-	.
.	.	.	4B\	.	.	.	.	.	.	.	.
.	.	.	4e\)	.	.	2g#X\	-i-	.	.	.	.
.	.	.	4dn\	-i-	.	.	.	.	.	.	.
=92	=92	=92	=92	=92	=92	=92	=92	=92	=92	=92	=92
4A\	-son	.	2c\	-son	.	2e\	-son	.	2a\	-son	.
(4AA/	e-	.	.	.	.	.	.	.	.	.	.
4C\	.	.	2r	.	.	2r	.	.	2r	.	.
4E\)	.	.	.	.	.	.	.	.	.	.	.
!	!	!	!LO:LB:g=original	!	!	!LO:LB:g=original	!	!	!	!	!
=93	=93	=93	=93	=93	=93	=93	=93	=93	=93	=93	=93
!	!	!	!	!	!LO:DY:rj:a	!	!	!	!	!	!
2F\	-lei-	.	4r	.	p	4r	.	.	4r	.	p
.	.	.	(4A/	e-	.	(4c\	e-	.	4a\	e-	.
2E\	.	.	4G#X/	.	.	4e\	.	.	4b\	.	.
.	.	.	4A/)	.	.	4a\)	.	.	4cc\	.	.
=94	=94	=94	=94	=94	=94	=94	=94	=94	=94	=94	=94
4E\	-son	.	2A\	-lei-	.	2e\	-lei-	.	2cc\	lei-	.
(4AA/	e-	.	.	.	.	.	.	.	.	.	.
4C\	.	.	4A\	-son	.	4c\	-son	.	4a\	-son	.
4E\)	.	.	4r	.	.	4r	.	.	4r	.	.
!LO:LB:g=original	!	!	!	!	!	!	!	!	!LO:LB:g=original	!	!
=95	=95	=95	=95	=95	=95	=95	=95	=95	=95	=95	=95
2F\	-lei-	.	4r	.	.	4r	.	.	4r	.	.
.	.	.	(4A\	e-	.	(4c\	e-	.	(4a\	e-	.
2E\	.	.	4G#X\	.	.	4e\	.	.	4b\	.	.
.	.	.	4A\)	.	.	4a\)	.	.	4cc\)	.	.
=96	=96	=96	=96	=96	=96	=96	=96	=96	=96	=96	=96
!	!	!LO:DY:rj:a	!	!	!	!	!	!	!	!	!
2E\	-son	p	[1A\	-le-	.	[1e\	-le-	.	[1cc\	le-	.
(2D\	e-	.	.	.	.	.	.	.	.	.	.
=97	=97	=97	=97	=97	=97	=97	=97	=97	=97	=97	=97
2C\	.	.	1A\]	.	.	1e\]	.	.	1cc\_	.	.
2BB/)	.	.	.	.	.	.	.	.	.	.	.
=98	=98	=98	=98	=98	=98	=98	=98	=98	=98	=98	=98
[>1AA/	-lei-	.	1e\	.	.	1a\	.	.	1cc\]	.	.
=99	=99	=99	=99	=99	=99	=99	=99	=99	=99	=99	=99
1AA/]	.	.	2f\	.	.	2g#X\	.	.	2dd\	.	.
.	.	.	2e\	-i-	.	2a\	-i	.	2cc\	-i-	.
!	!	!	!	!	!	!LO:LB:g=original	!	!	!	!	!
=100	=100	=100	=100	=100	=100	=100	=100	=100	=100	=100	=100
!	!	!	!	!	!	!LO:SIC:o:s:v:=son dopisane ołówkiem	!	!	!	!	!
1AA/;	-son	.	1c\;	-son	.	1e\;	.	.	1a\;	-son	.
==	==	==	==	==	==	==	==	==	==	==	==
*-	*-	*-	*-	*-	*-	*-	*-	*-	*-	*-	*-
!!!system-decoration: [(s1,s2,s3,s4)]
!!!RDF**kern: > = above
!!!RDF**kern: < = below
!!!RDF**dynam: p = "p:"
!!!RDF**dynam: f = "f:"
!!!EED: Leszek Kubiak
!!!EST: 2021-02-01
!!!AIN: 1 alto 1 empty 1 soprn 1 tenor
!!!ENC: Krzysztof Stępień
!!!END: 2021-01-25
